public/avatar/item0/26.svg

<svg xmlns:xlink="http://www.w3.org/1999/xlink" height="58.65" width="49.15" xmlns="http://www.w3.org/2000/svg"><use height="4.8" transform="translate(11.1 32.4)" width="25.15" xlink:href="#a"/><defs><g id="a" fill-rule="evenodd"><path d="M-12.85 16.65q-.7-2.4 1.65-2.35 3.15.15 3.6 1.95.25.85-.55 1.8-.75 1-1.7 1.05-2.25 0-3-2.45" fill="#fff" transform="translate(13 -14.3)"/><path d="m-11.2 14.3.65.1-1.9 3.15q-.7-1.2-.4-2.2.3-1.1 1.65-1.05" fill="#0004ff" transform="translate(13 -14.3)"/><path d="M-7.6 16.25q.25.85-.55 1.8-.75 1-1.7 1.05l-.45-.05 1.7-3.9q.8.5 1 1.1" fill="red" transform="translate(13 -14.3)"/><path d="M-12.85 16.65q-.7-2.4 1.65-2.35 3.15.15 3.6 1.95.25.85-.55 1.8-.75 1-1.7 1.05-2.25 0-3-2.45" fill="#fff" transform="translate(13 -14.3)"/><path d="m-11.2 14.3.65.1-1.9 3.15q-.7-1.2-.4-2.2.3-1.1 1.65-1.05" fill="#00bf49" transform="translate(13 -14.3)"/><path d="M-7.6 16.25q.25.85-.55 1.8-.75 1-1.7 1.05l-.45-.05 1.7-3.9q.8.5 1 1.1" fill="red" transform="translate(13 -14.3)"/><path d="M10.25 14.3q2.45-.05 1.7 2.35-.75 2.45-3 2.45-.95-.05-1.7-1.05-.8-.95-.55-1.8.45-1.8 3.55-1.95" fill="#fff" transform="translate(13 -14.3)"/><path d="M10.25 14.3q1.45-.05 1.75 1.05.3 1-.45 2.2l-1.9-3.15.6-.1" fill="red" transform="translate(13 -14.3)"/><path d="M6.7 16.25q.15-.6 1-1.1l1.65 3.9-.4.05q-.95-.05-1.7-1.05-.8-.95-.55-1.8" fill="#00bf49" transform="translate(13 -14.3)"/></g></defs></svg>

<?xml version="1.0" encoding="UTF-8" standalone="no"?>
<svg xmlns:xlink="http://www.w3.org/1999/xlink" height="58.65px" width="49.15px" xmlns="http://www.w3.org/2000/svg">
  <g transform="matrix(1.0, 0.0, 0.0, 1.0, 24.1, 18.1)">
    <use height="4.8" transform="matrix(1.0, 0.0, 0.0, 1.0, -13.0, 14.3)" width="25.15" xlink:href="#shape0"/>
  </g>
  <defs>
    <g id="shape0" transform="matrix(1.0, 0.0, 0.0, 1.0, 13.0, -14.3)">
      <path d="M-12.85 16.65 Q-13.55 14.25 -11.2 14.3 -8.05 14.45 -7.6 16.25 -7.35 17.1 -8.15 18.05 -8.9 19.05 -9.85 19.1 -12.1 19.1 -12.85 16.65" fill="#ffffff" fill-rule="evenodd" stroke="none"/>
      <path d="M-11.2 14.3 L-10.55 14.4 -12.45 17.55 Q-13.15 16.35 -12.85 15.35 -12.55 14.25 -11.2 14.3" fill="#0004ff" fill-rule="evenodd" stroke="none"/>
      <path d="M-7.6 16.25 Q-7.35 17.1 -8.15 18.05 -8.9 19.05 -9.85 19.1 L-10.3 19.05 -8.6 15.15 Q-7.8 15.65 -7.6 16.25" fill="#ff0000" fill-rule="evenodd" stroke="none"/>
      <path d="M-12.85 16.65 Q-13.55 14.25 -11.2 14.3 -8.05 14.45 -7.6 16.25 -7.35 17.1 -8.15 18.05 -8.9 19.05 -9.85 19.1 -12.1 19.1 -12.85 16.65" fill="#ffffff" fill-rule="evenodd" stroke="none"/>
      <path d="M-11.2 14.3 L-10.55 14.4 -12.45 17.55 Q-13.15 16.35 -12.85 15.35 -12.55 14.25 -11.2 14.3" fill="#00bf49" fill-rule="evenodd" stroke="none"/>
      <path d="M-7.6 16.25 Q-7.35 17.1 -8.15 18.05 -8.9 19.05 -9.85 19.1 L-10.3 19.05 -8.6 15.15 Q-7.8 15.65 -7.6 16.25" fill="#ff0000" fill-rule="evenodd" stroke="none"/>
      <path d="M10.25 14.3 Q12.7 14.25 11.95 16.65 11.2 19.1 8.95 19.1 8.0 19.05 7.25 18.05 6.45 17.1 6.7 16.25 7.15 14.45 10.25 14.3" fill="#ffffff" fill-rule="evenodd" stroke="none"/>
      <path d="M10.25 14.3 Q11.7 14.25 12.0 15.35 12.3 16.35 11.55 17.55 L9.65 14.4 10.25 14.3" fill="#ff0000" fill-rule="evenodd" stroke="none"/>
      <path d="M6.7 16.25 Q6.85 15.65 7.7 15.15 L9.35 19.05 8.95 19.1 Q8.0 19.05 7.25 18.05 6.45 17.1 6.7 16.25" fill="#00bf49" fill-rule="evenodd" stroke="none"/>
    </g>
  </defs>
</svg>
